!!!COM: Fanny (Mendelssohn) Hensel
!!!CNT: Deutsch
!!!TXO: Deutsch
!!!OTL: "Stimme der Glocken"
!!!LYR: Lenau, Nikolaus
!!!OPR: 
!!!OPS: Op. 
!!!ONM: No. 
!!!ENC: Emily Thomas
!!!YOR: Hensel: 16 Songs Fanny Mendelssohn Hensel
!!!YOR: Alfred, 1995
!!!ODT: 1846/
!!NB: Original key A-flat Major.
**kern	**silbe
=1	=1
*clefG2	*
*k[]	*
*M4/4	*
*MM[Allegro moderato]	*
1r	.
=2	=2
2r	.
8r	.
{8g	{Den
8g	glat-
8g	-ten
=3	=3
4.e	See
8g	kein
8cc	Win-
8g	-des-
8ee	-hauch
8dd	ver-
=4	=4
4cc	-knit-
4b}	-tert,}
8r	.
{8b	{das
8cc	Hoch-
8dd	-ge-
=5	=5
4f}	birg,}
8r	.
{8f	{die
8a	Tan-
8a	-nen,
8g	Klip-
8f	-pen,
=6	=6
4f	Bucht-
4e}	-en,}
4r	.
{4e	{die
=7	=7
8cc	Gle-
8b	-tscher,
8a	die
8e	von
8f	Wl-
8d	-ken
8g#	nur
8a	be-
=8	=8
2a	-such-
4d}	-ten,}
{4d	{sie
=9	=9
4b-	spie-
4g	-geln
4e-	sich
4c	im
=10	=10
4.d	Was-
8d	-ser
4d	un-
4f#	-zer-
=11	=11
4a	split-
4g}	-tert.}
2r	.
=12	=12
4r	.
{4dd	{Das
4dd	du2r-
4dd	-re
=13	=13
4.g#	Blatt
8b	vom
8ff	Bau-
8ee	-me
8ee	ho2r-
8b	-bar
=14	=14
4dd	zit-
4cc}	-tert,}
8r	.
{8a	{und
8a	ho2r-
8a	-bar
=15	=15
4.ee	rie-
8a	-selt
8a	nie-
8a	-der
8cc	in
8ee-	die
=16	=16
4g	Schluch-
4f#}	-ten}
4r	.
{4d	{das
=17	=17
4b-	klein-
8f#	|
8g	-ste
4e-	Stein-
4d}	-chen,}
=18	=18
{8b-	{das
8b-	auf
8f#	ih-
8g	-ren
4e-	Fluch-
8d	-ten
8c	die
=19	=19
4.B	Gem-
8B	-se
4d}	schnellt,}
{4f	{wenn
=20	=20
4.a-	sie
8a-	den
4g	Ja2-
4f	-ger
=21	=21
4.ff	wit-
8dd	|
4b}	-tert,}
{4g	{die
=22	=22
4c	Gem-
4d	-se
4e	schnellt,
4e	wenn
=23	=23
4f	sie
4g	den
4a	ja2-
8b	-ger
8cc	|
=24	=24
2cc	wit-
2g	|
=25	=25
2c}	-tert.}
2r	.
=26	=26
4r	.
{4cc	Den
4cc	glat-
4cc	-ten
=27	=27
4.ff	See
8dd	kein
8b	Win-
8g	-des-
8f	-hauch
8d	ver-
=28	=28
4d	knit-
4c}	-tert,}
2r	.
=29	=29
4r	.
{4cc	{den
4cc	glat-
4cc	-ten
=30	=30
2b	See
2a	kein
=31	=31
2a-	Win-
2g	-des-
=32	=32
2.f#	hauch
4f#	ver0
=33	=33
4a	-knit-
4g}	-tert,
4r	.
{4g	{kein
=34	=34
4.gg	Win-
8ee	|
8cc	|
8g	|
8e	-des-
8g	|
=35	=35
1c	-hauch.
=36	=36
2c}	|}
2r	.
=37	=37
4r	.
{4ee}	{Horch!}
4r	.
4r	.
=38	=38
2r	.
{4gg}	{Horch!}
4r	.
=39	=39
1r	.
=40	=40
*k[f#c#g#d#]	*
2r	.
{[2gg#	{Glo-
=41	=41
8gg#]	|
8ee	-cken,
8g#	aus
8a	der
8cc#	wei-
8b	-ten
8a	Fer-
8f#	-ne
=42	=42
4f#	to2-
4e}	-nend,}
2r	.
=43	=43
1r	.
=44	=44
2r	.
8r	.
{8e	{den
8e	Gram
8e	mir
=45	=45
4.fn	we-
8fn	-ckend
8f#	und
8f#	zu-
8a	-gleich
8ccn	ver-
=46	=46
4ccn	so2h-
4gn}	-nend,}
8r	.
{8gn	{den
8g#	Gram
8g#	mir
=47	=47
4.a	we-
8a	-ckend
8a#	und
8a#	zu-
8cc#	-gleich
8ee	ver-
=48	=48
2ee	-so2h-
4b}	-nend,}
4r	.
=49	=49
4r	.
{4b	{dass
4g#	aus
4e	dem
=50	=50
2B	To-
2cn	-de
=51	=51
4c#	neu-
4c#	-es
4e	Le-
4gn	-gen
=52	=52
2gn	blu2-
4dn}	-he!}
4r	.
=53	=53
1r	.
=54	=54
*k[f#]	*
*M6/8	*
4r	.
8r	.
4r	.
{8dd	{Das
=55	=55
[4.dd	La2u-
4dd]	|
8g	-ten
=56	=56
4g	mahnt
8a}	|}
4r	.
{8d	{mich
=57	=57
4cc	lei-
8cc	-se
8cc	an
8b	|
8a	-den
=58	=58
4.a	Frie-
4b}	-den,}
8r	.
=59	=59
{4.g	{der
8g	von
8a	|
8b	-der
=60	=60
[4.cc	Erd'
4cc]	|
8g	auf
=61	=61
4ee-	im-
8ee-	-mer
4ee-	ist
8cc#	ge-
=62	=62
4.cc#	-schie-
4dd}	-den,}
8r	.
=63	=63
4r	.
{8g	{schon
4g	in
8g	der
=64	=64
[4.ffn	er-
8ffn]	|
8ee	|
8dd	-sten
=65	=65
8dd	Pa-
8cc	|
8b	-ra-
8b	-die-
8a	|
8g	-ses-
=66	=66
4.fn	-fru2-
4e-}	-he.}
8r	.
=67	=67
4r	.
{8e-	{Das
4e-	La2u-
8d	-ten
=68	=68
8c#	mahnt
[4b-	|
4b-]	|
8c#	mich
=69	=69
4d	lei-
8d	-se
4g	an
8b	den
=70	=70
4c	Frie-
8a	|
4f#}	-den,}
8r	.
=71	=71
4r	.
{8g	{der
4g	von
8g	der
=72	=72
[4.ee	Erd'
4ee]	|
8cc#	auf
=73	=73
4b-	im-
8g	-mer
4f#	ist
8e	ge-
=74	=74
4.c#	-schie-
4d}	-den}
8r	.
=75	=75
{4.dd	{schon
4cc#	in
8cc#	der
=76	=76
4.ccn	er-
4.b	-sten
=77	=77
[4.b-	Pa-
4b-]	|
8g	-ra-
=78	=78
[4.g	-die-
4g]	|
8d	-ses-
=79	=79
2.e-	-fru2-
=80	=80
4.d}	-he.}
4r	.
8r	.
==	==
*-	*-
